X:35
T:Lezginka
M:2/4
L:1/8
Q:1/4=140
K:C
Acef | ec A2 | eedc | dB G2 |
GBde | dB G2 | dGdB | cB A2 ||
eedc | eedc | eedc | dBG2 |
ddcB | ddcB | ddcB | cB A2 |]

